X:143
T:Murphy's (hornpipe)
B:CRE1.210 (Cornphiopa Ui Mhurchadha)
F:file ID: cre.1/143murph
S:Sonny Brogan
M:C
R:hornpipe
L:1/8
Q:150
K:D
(3ABc|d2AF d2AF|dcdf ecAg|f2df gfed|c2A2 A2 (3ABc|
d2AF d2AF|dcdf ecAg|f2df gfec|df (3edc d2:|
fg|"9"afdg faga|bged ceag|faa2 bged|c2A2 A2fg|
afdg faga|bged ceag|faa2 bgec|df (3edc d2:|
AG|"17"F2Dg f2ec|dcdf ecAG|f2Dg f2ec|fd (3edc d2AG|
F2Dg f2ec|dcdf ecAG|faa2 bgec|df (3edc d2:|
ag|"25"fefa gfge|fefd eAAg|f2df gfed|c2AG A3G|
(3FED AD BDAD|dcdf ecAg|faa2 bgec|df (3edc d2||
ag|"33"fefa gfge|fefd eAAg|f2df gfed|c2A2 A2Bc|
dcdf edeg|fefa gfgb|agba gfec|de (3edc d4|]X:197

%%%

